X: 32971
T: Pretty Girl Milking Her Cow, The
R: waltz
M: 3/4
K: Adorian
L:1/4
A/B/|cee/d/|Bdd/B/|A/B/G2-|G2A/B/|cee/d/|Bdd/B/|A3-|A>B A/B/|
cee/d/|Bgd/B/|A/B/G2-|G>f g/f/|e/d/ c/B/ A/G/|EA>B|A3-|A2:|A/B/|
cc/d/ e/f/|gg/e/ d/B/|A/B/G2-|G2A/B/|cc/d/ e/f/|geg|a3-|a>a b/a/|
gg/e/d/c/|d/g/ G/B/ d/B/|A/4B/4A/G2-|G>f g/f/|e/d/ c/B/ A/G/|EA>B|A3-|A2A/B/||
cc/d/ e/f/|gg/e/ d/B/|A/B/G2-|G2A/B/|cc/d/ e/f/|gc'>b|a3-|a>a b/a/|
gg/e/d/c/|d/g/ G/B/ d/B/|A/4B/4A/^G2-|^G>f g/f/|e/d/ c/B/ A/G/|EA>B|A3|A2||

